packages/sources/icons/src/vitamix/checkbox-line.svg

<svg width="16" height="16" viewBox="0 0 16 16" fill="none" xmlns="http://www.w3.org/2000/svg">
<path fill-rule="evenodd" clip-rule="evenodd" d="M2.66667 2H13.3333C13.7015 2 14 2.29848 14 2.66667V13.3333C14 13.7015 13.7015 14 13.3333 14H2.66667C2.29848 14 2 13.7015 2 13.3333V2.66667C2 2.29848 2.29848 2 2.66667 2ZM3.33333 3.33333V12.6667H12.6667V3.33333H3.33333ZM4.50667 7.83804L7.33533 10.6667L12.0493 5.9527L11.106 5.01004L7.33533 8.78137L5.44933 6.89537L4.50667 7.83804Z" fill="#001018"/>
</svg>

<svg width="16" height="16" fill="none" xmlns="http://www.w3.org/2000/svg"><path fill-rule="evenodd" clip-rule="evenodd" d="M2.667 2h10.666c.368 0 .667.298.667.667v10.666a.667.667 0 0 1-.667.667H2.667A.667.667 0 0 1 2 13.333V2.667C2 2.298 2.298 2 2.667 2zm.666 1.333v9.334h9.334V3.333H3.333zm1.174 4.505 2.828 2.829 4.714-4.714-.943-.943-3.77 3.771-1.887-1.886-.942.943z" fill="#001018"/></svg>
